svg/u1f926_1f3ff_200d_2642.svg

<svg viewBox="0 0 128 128" xmlns="http://www.w3.org/2000/svg">
  <g id="shirt">
    <linearGradient id="SVGID_1_" gradientTransform="matrix(1 0 0 -1 0 128)" gradientUnits="userSpaceOnUse" x1="64" x2="64" y1="32.8209" y2="-0.1808">
      <stop offset="0" stop-color="#00BFA5"/>
      <stop offset="0.4701" stop-color="#00B29A"/>
      <stop offset="1" stop-color="#009E89"/>
    </linearGradient>
    <path d="M64.13,96c-0.04,0-0.09,0-0.13,0c-25.49,0.03-52,7.28-52,25.06V124h1.5H15h98h1.5h1.5v-2.94 C116,104.3,89.74,96,64.13,96z" fill="url(#SVGID_1_)"/>
  </g>
  <g id="neck">
    <path d="M54.92,90.08v9.98c0,4.51,3.7,8.17,8.26,8.17h1.65c4.56,0,8.26-3.66,8.26-8.17v-9.98L54.92,90.08z" fill="#3C2B24"/>
  </g>
  <g id="ears">
    <path d="M91.33,50.43H36.67c-5.89,0-10.71,5.14-10.71,11.41s4.82,11.41,10.71,11.41h54.65 c5.89,0,10.71-5.14,10.71-11.41S97.22,50.43,91.33,50.43z" fill="#3C2B24"/>
  </g>
  <path id="head" d="M64.02,11.07L64.02,11.07L64.02,11.07c-17.4-0.01-33.53,18.6-33.54,45.38 c-0.01,26.64,16.59,39.82,33.5,39.83s33.53-13.15,33.54-39.79C97.53,29.69,81.42,11.07,64.02,11.07z" fill="#70534A"/>
  <path id="nose" d="M67.81,68.06c-0.11-0.04-0.21-0.07-0.32-0.08H60.5c-0.11,0.01-0.21,0.04-0.32,0.08 c-0.63,0.26-0.98,0.91-0.68,1.61c0.3,0.7,1.69,2.66,4.49,2.66c2.8,0,4.2-1.96,4.49-2.66C68.79,68.97,68.45,68.31,67.81,68.06z" fill="#33251F"/>
  <g id="eyes">
    <path d="M47.69,60.3c-2.06,0-3.9-0.5-5.18-1.29c-0.55-0.34-0.87-0.14-0.77,0.5c0.37,2.48,2.9,4.4,5.95,4.4 c3.06,0,5.58-1.92,5.95-4.4c0.1-0.64-0.22-0.84-0.77-0.5C51.59,59.8,49.75,60.3,47.69,60.3z" fill="#1A1717"/>
    <path d="M80.31,60.3c-2.06,0-3.9-0.5-5.18-1.29c-0.55-0.34-0.87-0.14-0.77,0.5c0.38,2.48,2.9,4.4,5.95,4.4 s5.58-1.92,5.95-4.4c0.1-0.64-0.22-0.84-0.77-0.5C84.21,59.8,82.36,60.3,80.31,60.3z" fill="#1A1717"/>
  </g>
  <g id="eyebrows">
    <path d="M39.99,50.73c3.19-4.56,10.76-4.64,14.48-0.74c0.68,0.71,1.35,1.67,0.65,2.63 c-0.76,1.05-1.87,0.54-2.81,0.15c-2.37-0.97-5.02-1.24-7.52-0.65c-0.53,0.12-1.05,0.29-1.56,0.47c-0.51,0.18-1,0.52-1.53,0.63 C40.31,53.52,39.2,51.91,39.99,50.73z" fill="#1A1717"/>
    <path d="M86.05,53.13c-2.23-0.97-4.49-1.53-6.95-1.25c-1.12,0.13-2.22,0.42-3.26,0.83 c-0.83,0.33-1.72,0.86-2.58,0.28c-2.45-1.69,1.89-4.44,3.17-4.99c2.76-1.19,6.05-1.08,8.72,0.31c1.06,0.55,2.21,1.35,2.84,2.4 C88.78,52.02,87.6,53.76,86.05,53.13z" fill="#1A1717"/>
  </g>
  <path id="mouth" d="M73.95,81.76c0,1.01-4.46,1.22-9.95,1.22s-9.95-0.23-9.95-1.22 c0-1.04,4.46-1.68,9.95-1.68S73.95,80.7,73.95,81.76z" fill="#1A1717"/>
  <g id="hairGroup">
    <path id="hair_7_" d="M64.02,4.61L64.02,4.61c-0.01,0-0.01,0-0.02,0c-0.01,0-0.01,0-0.02,0l0,0 C18.54,4.85,27.85,56.75,27.85,56.75s2.04,5.35,2.97,7.71c0.13,0.34,0.63,0.3,0.71-0.05c0.97-4.34,4.46-19.73,6.22-24.4 c1.04-2.76,3.9-4.36,6.79-3.83c4.45,0.81,11.55,1.81,19.37,1.81c0.03,0,0.06,0,0.08,0s0.06,0,0.08,0c7.82,0,14.92-1,19.37-1.81 c2.9-0.53,5.76,1.08,6.79,3.83c1.75,4.66,5.22,19.96,6.2,24.36c0.08,0.36,0.58,0.39,0.71,0.05l2.98-7.67 C100.15,56.75,109.45,4.85,64.02,4.61z" fill="#232020"/>
    <radialGradient id="hairHighlights_1_" cx="63.9995" cy="80.3211" gradientTransform="matrix(1 0 0 -1.1282 0 138.2961)" gradientUnits="userSpaceOnUse" r="38.0923">
      <stop offset="0.7945" stop-color="#444140" stop-opacity="0"/>
      <stop offset="1" stop-color="#444140"/>
    </radialGradient>
    <path id="hairHighlights" d="M100.15,56.75c0,0,9.31-51.9-36.13-52.14v0 c-0.01,0-0.01,0-0.02,0h0c-0.01,0-0.01,0-0.02,0l0,0c-0.71,0-1.4,0.02-2.08,0.05c-1.35,0.06-2.66,0.16-3.92,0.31 c-0.01,0-0.03,0-0.04,0C57.86,4.99,57.78,5,57.69,5.01C19.44,9.82,27.85,56.75,27.85,56.75l2.98,7.68c0.13,0.34,0.62,0.31,0.7-0.05 c0.98-4.39,4.46-19.71,6.22-24.37c1.04-2.76,3.9-4.36,6.79-3.83c4.45,0.81,11.55,1.81,19.37,1.81c0.03,0,0.06,0,0.08,0 s0.06,0,0.08,0c7.82,0,14.92-1,19.37-1.81c2.9-0.53,5.76,1.08,6.79,3.83c1.76,4.68,5.25,20.1,6.22,24.42 c0.08,0.36,0.57,0.39,0.7,0.05C98.09,62.12,100.15,56.75,100.15,56.75z" fill="url(#hairHighlights_1_)"/>
  </g>
  <linearGradient id="SVGID_2_" gradientTransform="matrix(1 0 0 -1 0 128)" gradientUnits="userSpaceOnUse" x1="70.5601" x2="58.043" y1="42.7122" y2="36.818">
    <stop offset="0.5089" stop-color="#000000"/>
    <stop offset="1" stop-color="#000000" stop-opacity="0"/>
  </linearGradient>
  <path d="M82.42,74.24c1.75-4.43,1.44-6.57,0.16-10.63 c-0.33-1.05-0.53-3.34-0.6-4.12c-0.26-2.98,0.76-6.75,1.41-7.5c1.19-1.37,1.53-2.85,1.38-4.38c-0.22-2.22-3.89-5.01-7.91-0.84 c-1.62,1.69-2.31,4.38-2.31,4.38c-1.81-4.31-4.98-11.93-5.39-12.9l-0.06-0.15c-0.65-1.63-1.88-2.88-3.35-3.4 c-1.33-0.48-2.76-0.35-4.04,0.35c-0.88,0.48-1.57,1.22-2,2.1c-1.38-1.3-3.16-1.76-4.93-1.16c-1.39,0.47-2.45,1.46-2.98,2.78 c-0.35,0.88-0.45,1.85-0.3,2.83c-1.09-0.2-2.22,0-3.24,0.6c-0.94,0.56-3.81,2.71-1.49,7.17c0.05,0.1,0.12,0.23,0.21,0.38 c-0.88,0.04-1.59,0.33-2.05,0.59c-1.3,0.72-2.19,1.87-2.49,3.25c-0.33,1.48,0.06,3.1,1.04,4.43l6.18,9.06c0,0,3.87,5.86,5.46,8.3 c1.27,1.94,2.69,3.53,4.25,4.73c-0.34,0.99-0.28,2.05,0.14,2.92L74.45,124h34.47C108.92,124,82.43,74.25,82.42,74.24z" enable-background="new " fill="url(#SVGID_2_)" opacity="0.2"/>
  <linearGradient id="hand_1_" gradientTransform="matrix(1 0 0 -1 0 128)" gradientUnits="userSpaceOnUse" x1="58.3354" x2="75.0796" y1="91.6256" y2="53.3001">
    <stop offset="0.5" stop-color="#70534A"/>
    <stop offset="1" stop-color="#5C4037"/>
  </linearGradient>
  <path id="hand" d="M81.77,45.85c-1.08-0.41-2.83-0.01-4.37,1.86s-1.01,4.46-1.65,6.08 c-0.21,0.52-0.94,0.52-1.15,0c-1.4-3.44-6.7-16.01-6.7-16.01c-0.68-1.71-2.29-2.66-3.87-1.79c-1.26,0.69-1.49,2.26-0.91,3.69 l4.29,11.51c0.06,0.15,0,0.32-0.13,0.38l0,0c-0.14,0.07-0.32,0.01-0.4-0.15l-6.88-12.5c-0.71-1.36-1.94-2.27-3.3-1.81 c-1.69,0.57-2.06,2.41-1.21,4.05l6.22,12.72c0.16,0.31,0.06,0.67-0.21,0.84c0,0-0.01,0-0.01,0.01c-0.28,0.17-0.66,0.06-0.84-0.25 c0,0-5.46-8.63-6.22-9.89s-2.22-2.41-3.78-1.49s-1.31,2.42-0.55,3.87c0.65,1.24,4.61,7.94,5.76,9.87c0.17,0.29,0.08,0.66-0.2,0.84 l0,0c-0.26,0.17-0.61,0.11-0.81-0.13l-4.17-5.05c-1.03-1.25-2.17-1.91-3.42-1.22c-1.56,0.86-1.69,2.59-0.6,4.08l6.2,9.09 c0,0,3.88,5.87,5.47,8.31c4.19,6.42,8.62,6.24,9.52,6.26c2.34,0.05,7.24-2.01,8.82-2.77c8.83-4.24,4.41-11.94,4.01-16.53 c-0.25-2.83,0.83-8.11,2.23-9.95C84.26,47.93,82.68,46.19,81.77,45.85z" fill="url(#hand_1_)"/>
  <linearGradient id="shirt_x5F_fill_2_" gradientTransform="matrix(1 0 0 -1 0 128)" gradientUnits="userSpaceOnUse" x1="98.1661" x2="77.515" y1="31.5351" y2="21.7677">
    <stop offset="0" stop-color="#00BFA5"/>
    <stop offset="0.4701" stop-color="#00B29A"/>
    <stop offset="1" stop-color="#009E89"/>
  </linearGradient>
  <path id="shirt_x5F_fill_1_" d="M78.69,124L62.95,80.9c-0.02-0.04-0.03-0.09-0.06-0.13 c-0.18-0.37-0.2-0.79-0.05-1.17s0.43-0.69,0.8-0.85l16.58-7.29c0.19-0.08,0.4-0.13,0.6-0.13c0.56,0,1.07,0.31,1.33,0.8L111.94,124 H78.69z" fill="url(#shirt_x5F_fill_2_)"/>
</svg>

<svg viewBox="0 0 128 128" xmlns="http://www.w3.org/2000/svg">
  <defs>
    <linearGradient id="SVGID_2_" gradientTransform="matrix(1 0 0 -1 0 0)" gradientUnits="userSpaceOnUse" x1="70.5601" x2="58.043" y1="-85.2878" y2="-91.182">
      <stop offset="0.5089" stop-color="#000000"/>
      <stop offset="1" stop-color="#000000" stop-opacity="0"/>
    </linearGradient>
    <linearGradient id="hand_1_" gradientTransform="matrix(1 0 0 -1 0 0)" gradientUnits="userSpaceOnUse" x1="58.3354" x2="75.0796" y1="-36.3744" y2="-74.6999">
      <stop offset="0.5" stop-color="#70534A"/>
      <stop offset="1" stop-color="#5C4037"/>
    </linearGradient>
    <linearGradient id="shirt_x5F_fill_2_" gradientTransform="matrix(1 0 0 -1 0 0)" gradientUnits="userSpaceOnUse" x1="98.1661" x2="77.515" y1="-96.4649" y2="-106.2323">
      <stop offset="0" stop-color="#00BFA5"/>
      <stop offset="0.4701" stop-color="#00B29A"/>
      <stop offset="1" stop-color="#009E89"/>
    </linearGradient>
    <linearGradient id="SVGID_1_" gradientTransform="matrix(1 0 0 -1 0 0)" gradientUnits="userSpaceOnUse" x1="64" x2="64" y1="-95.1791" y2="-128.1808">
      <stop offset="0" stop-color="#00BFA5"/>
      <stop offset="0.4701" stop-color="#00B29A"/>
      <stop offset="1" stop-color="#009E89"/>
    </linearGradient>
    <radialGradient id="hairHighlights_1_" cx="63.9995" cy="-42.260091" gradientTransform="matrix(1 0 0 -1.1282 0 0)" gradientUnits="userSpaceOnUse" r="38.0923">
      <stop offset="0.7945" stop-color="#444140" stop-opacity="0"/>
      <stop offset="1" stop-color="#444140"/>
    </radialGradient>
  </defs>
  <path d="M64.13,96 C64.09,96 64.04,96 64,96 C38.51,96.03 12,103.28 12,121.06 L12,124 L13.5,124 L15,124 L113,124 L114.5,124 L116,124 L116,121.06 C116,104.3 89.74,96 64.13,96 Z" fill="url(#SVGID_1_)"/>
  <path d="M54.92,90.08 L54.92,100.06 C54.92,104.57 58.62,108.23 63.18,108.23 L64.83,108.23 C69.39,108.23 73.09,104.57 73.09,100.06 L73.09,90.08 L54.92,90.08 Z" fill="#3C2B24"/>
  <path d="M91.33,50.43 L36.67,50.43 C30.78,50.43 25.96,55.57 25.96,61.84 C25.96,68.11 30.78,73.25 36.67,73.25 L91.32,73.25 C97.21,73.25 102.03,68.11 102.03,61.84 C102.03,55.57 97.22,50.43 91.33,50.43 Z" fill="#3C2B24"/>
  <path id="head" d="M64.02,11.07 L64.02,11.07 L64.02,11.07 C46.62,11.06 30.49,29.67 30.48,56.45 C30.47,83.09 47.07,96.27 63.98,96.28 C80.89,96.29 97.51,83.13 97.52,56.49 C97.53,29.69 81.42,11.07 64.02,11.07 Z" fill="#70534A"/>
  <path id="nose" d="M67.81,68.06 C67.7,68.02 67.6,67.99 67.49,67.98 L60.5,67.98 C60.39,67.99 60.29,68.02 60.18,68.06 C59.55,68.32 59.2,68.97 59.5,69.67 C59.8,70.37 61.19,72.33 63.99,72.33 C66.79,72.33 68.19,70.37 68.48,69.67 C68.79,68.97 68.45,68.31 67.81,68.06 Z" fill="#33251F"/>
  <path d="M47.69,60.3 C45.63,60.3 43.79,59.8 42.51,59.01 C41.96,58.67 41.64,58.87 41.74,59.51 C42.11,61.99 44.64,63.91 47.69,63.91 C50.75,63.91 53.27,61.99 53.64,59.51 C53.74,58.87 53.42,58.67 52.87,59.01 C51.59,59.8 49.75,60.3 47.69,60.3 Z" fill="#1A1717"/>
  <path d="M80.31,60.3 C78.25,60.3 76.41,59.8 75.13,59.01 C74.58,58.67 74.26,58.87 74.36,59.51 C74.74,61.99 77.26,63.91 80.31,63.91 C83.36,63.91 85.89,61.99 86.26,59.51 C86.36,58.87 86.04,58.67 85.49,59.01 C84.21,59.8 82.36,60.3 80.31,60.3 Z" fill="#1A1717"/>
  <path d="M39.99,50.73 C43.18,46.17 50.75,46.09 54.47,49.99 C55.15,50.7 55.82,51.66 55.12,52.62 C54.36,53.67 53.25,53.16 52.31,52.77 C49.94,51.8 47.29,51.53 44.79,52.12 C44.26,52.24 43.74,52.41 43.23,52.59 C42.72,52.77 42.23,53.11 41.7,53.22 C40.31,53.52 39.2,51.91 39.99,50.73 Z" fill="#1A1717"/>
  <path d="M86.05,53.13 C83.82,52.16 81.56,51.6 79.1,51.88 C77.98,52.01 76.88,52.3 75.84,52.71 C75.01,53.04 74.12,53.57 73.26,52.99 C70.81,51.3 75.15,48.55 76.43,48 C79.19,46.81 82.48,46.92 85.15,48.31 C86.21,48.86 87.36,49.66 87.99,50.71 C88.78,52.02 87.6,53.76 86.05,53.13 Z" fill="#1A1717"/>
  <path id="mouth" d="M73.95,81.76 C73.95,82.77 69.49,82.98 64,82.98 C58.51,82.98 54.05,82.75 54.05,81.76 C54.05,80.72 58.51,80.08 64,80.08 C69.49,80.08 73.95,80.7 73.95,81.76 Z" fill="#1A1717"/>
  <path id="hair_7_" d="M64.02,4.61 L64.02,4.61 C64.01,4.61 64.01,4.61 64,4.61 C63.99,4.61 63.99,4.61 63.98,4.61 L63.98,4.61 C18.54,4.85 27.85,56.75 27.85,56.75 C27.85,56.75 29.89,62.1 30.82,64.46 C30.95,64.8 31.45,64.76 31.53,64.41 C32.5,60.07 35.99,44.68 37.75,40.01 C38.79,37.25 41.65,35.65 44.54,36.18 C48.99,36.99 56.09,37.99 63.91,37.99 C63.94,37.99 63.97,37.99 63.99,37.99 C64.01,37.99 64.05,37.99 64.07,37.99 C71.89,37.99 78.99,36.99 83.44,36.18 C86.34,35.65 89.2,37.26 90.23,40.01 C91.98,44.67 95.45,59.97 96.43,64.37 C96.51,64.73 97.01,64.76 97.14,64.42 L100.12,56.75 C100.15,56.75 109.45,4.85 64.02,4.61 Z" fill="#232020"/>
  <path id="hairHighlights" d="M100.15,56.75 C100.15,56.75 109.46,4.85 64.02,4.61 L64.02,4.61 C64.01,4.61 64.01,4.61 64,4.61 L64,4.61 C63.99,4.61 63.99,4.61 63.98,4.61 L63.98,4.61 C63.27,4.61 62.58,4.63 61.9,4.66 C60.55,4.72 59.24,4.82 57.98,4.97 C57.97,4.97 57.95,4.97 57.94,4.97 C57.86,4.99 57.78,5 57.69,5.01 C19.44,9.82 27.85,56.75 27.85,56.75 L30.83,64.43 C30.96,64.77 31.45,64.74 31.53,64.38 C32.51,59.99 35.99,44.67 37.75,40.01 C38.79,37.25 41.65,35.65 44.54,36.18 C48.99,36.99 56.09,37.99 63.91,37.99 C63.94,37.99 63.97,37.99 63.99,37.99 C64.01,37.99 64.05,37.99 64.07,37.99 C71.89,37.99 78.99,36.99 83.44,36.18 C86.34,35.65 89.2,37.26 90.23,40.01 C91.99,44.69 95.48,60.11 96.45,64.43 C96.53,64.79 97.02,64.82 97.15,64.48 C98.09,62.12 100.15,56.75 100.15,56.75 Z" fill="url(#hairHighlights_1_)"/>
  <path d="M82.42,74.24 C84.17,69.81 83.86,67.67 82.58,63.61 C82.25,62.56 82.05,60.27 81.98,59.49 C81.72,56.51 82.74,52.74 83.39,51.99 C84.58,50.62 84.92,49.14 84.77,47.61 C84.55,45.39 80.88,42.6 76.86,46.77 C75.24,48.46 74.55,51.15 74.55,51.15 C72.74,46.84 69.57,39.22 69.16,38.25 L69.1,38.1 C68.45,36.47 67.22,35.22 65.75,34.7 C64.42,34.22 62.99,34.35 61.71,35.05 C60.83,35.53 60.14,36.27 59.71,37.15 C58.33,35.85 56.55,35.39 54.78,35.99 C53.39,36.46 52.33,37.45 51.8,38.77 C51.45,39.65 51.35,40.62 51.5,41.6 C50.41,41.4 49.28,41.6 48.26,42.2 C47.32,42.76 44.45,44.91 46.77,49.37 C46.82,49.47 46.89,49.6 46.98,49.75 C46.1,49.79 45.39,50.08 44.93,50.34 C43.63,51.06 42.74,52.21 42.44,53.59 C42.11,55.07 42.5,56.69 43.48,58.02 L49.66,67.08 C49.66,67.08 53.53,72.94 55.12,75.38 C56.39,77.32 57.81,78.91 59.37,80.11 C59.03,81.1 59.09,82.16 59.51,83.03 L74.45,124 L108.92,124 C108.92,124 82.43,74.25 82.42,74.24 Z" fill="url(#SVGID_2_)" opacity="0.2"/>
  <path id="hand" d="M81.77,45.85 C80.69,45.44 78.94,45.84 77.4,47.71 C75.86,49.58 76.39,52.17 75.75,53.79 C75.54,54.31 74.81,54.31 74.6,53.79 C73.2,50.35 67.9,37.78 67.9,37.78 C67.22,36.07 65.61,35.12 64.03,35.99 C62.77,36.68 62.54,38.25 63.12,39.68 L67.41,51.19 C67.47,51.34 67.41,51.51 67.28,51.57 L67.28,51.57 C67.14,51.64 66.96,51.58 66.88,51.42 L60,38.92 C59.29,37.56 58.06,36.65 56.7,37.11 C55.01,37.68 54.64,39.52 55.49,41.16 L61.71,53.88 C61.87,54.19 61.77,54.55 61.5,54.72 C61.5,54.72 61.49,54.72 61.49,54.73 C61.21,54.9 60.83,54.79 60.65,54.48 C60.65,54.48 55.19,45.85 54.43,44.59 C53.67,43.33 52.21,42.18 50.65,43.1 C49.09,44.02 49.34,45.52 50.1,46.97 C50.75,48.21 54.71,54.91 55.86,56.84 C56.03,57.13 55.94,57.5 55.66,57.68 L55.66,57.68 C55.4,57.85 55.05,57.79 54.85,57.55 L50.68,52.5 C49.65,51.25 48.51,50.59 47.26,51.28 C45.7,52.14 45.57,53.87 46.66,55.36 L52.86,64.45 C52.86,64.45 56.74,70.32 58.33,72.76 C62.52,79.18 66.95,79 67.85,79.02 C70.19,79.07 75.09,77.01 76.67,76.25 C85.5,72.01 81.08,64.31 80.68,59.72 C80.43,56.89 81.51,51.61 82.91,49.77 C84.26,47.93 82.68,46.19 81.77,45.85 Z" fill="url(#hand_1_)"/>
  <path id="shirt_x5F_fill_1_" d="M78.69,124 L62.95,80.9 C62.93,80.86 62.92,80.81 62.89,80.77 C62.71,80.4 62.69,79.98 62.84,79.6 C62.99,79.22 63.27,78.91 63.64,78.75 L80.22,71.46 C80.41,71.38 80.62,71.33 80.82,71.33 C81.38,71.33 81.89,71.64 82.15,72.13 L111.94,124 L78.69,124 Z" fill="url(#shirt_x5F_fill_2_)"/>
</svg>
